assets/social1.svg

<svg viewBox="0 0 31 30" fill="none" xmlns="http://www.w3.org/2000/svg">
  <path d="M21.9005 9.81093c-.1658-.41371-.3553-.70922-.6633-1.01655-.3079-.30733-.604-.49645-1.0186-.66194-.308-.1182-.7817-.26005-1.6345-.30733-.9358-.04728-1.2082-.04728-3.5652-.04728-2.3571 0-2.6295.01182-3.5652.04728-.8647.03546-1.3266.17731-1.63458.30733-.41456.16549-.71067.35461-1.01863.66194-.30796.30733-.49747.60284-.66329 1.01655-.11845.30737-.26058.78017-.30796 1.63117-.04738.9338-.04738 1.2057-.04738 3.558 0 2.3522.01185 2.6241.04738 3.5579.03553.8629.17767 1.3239.30796 1.6312.16582.4137.35533.7092.66329 1.0165.30796.3074.60407.4965 1.01863.662.30798.1182.78178.26 1.63458.3073.9357.0473 1.2081.0473 3.5652.0473 2.357 0 2.6294-.0118 3.5652-.0473.8646-.0355 1.3265-.1773 1.6345-.3073.4146-.1655.7107-.3546 1.0186-.662.308-.3073.4975-.6028.6633-1.0165.1185-.3073.2606-.7802.308-1.6312.0474-.9338.0473-1.2057.0473-3.5579 0-2.3523-.0118-2.6242-.0473-3.558-.0356-.8628-.1777-1.3238-.308-1.63117Zm-6.8698 9.70447c-2.4992 0-4.5246-2.0213-4.5246-4.5153 0-2.4941 2.0254-4.5154 4.5246-4.5154 2.4992 0 4.5246 2.0213 4.5246 4.5154 0 2.494-2.0254 4.5153-4.5246 4.5153Zm4.7023-8.156c-.5804 0-1.0542-.4728-1.0542-1.052 0-.57921.4738-1.05203 1.0542-1.05203s1.0541.47282 1.0541 1.05203c.0119.5792-.4619 1.052-1.0541 1.052Z" fill="#494949"/>
  <path d="M16.0032 17.7645c1.5308-.5358 2.3365-2.2087 1.7995-3.7364-.537-1.5276-2.2133-2.3317-3.7441-1.7958-1.5308.5359-2.3364 2.2088-1.7994 3.7364.5369 1.5277 2.2132 2.3317 3.744 1.7958Z" fill="#494949"/>
  <path d="M27.1002 0H2.96113C1.32658 0 0 1.32388 0 2.95508V27.0449C0 28.6761 1.32658 30 2.96113 30H27.1002c1.6346 0 2.9612-1.3239 2.9612-2.9551V2.95508C30.0614 1.32388 28.7348 0 27.1002 0Zm-3.3046 18.6288c-.0474.9338-.1895 1.5721-.4145 2.1395-.2251.5792-.5212 1.0757-1.0187 1.5603-.4856.4846-.9831.792-1.5634 1.0166-.5567.2127-1.2082.3664-2.1439.4137-.9357.0472-1.2437.0472-3.6363.0472s-2.7005-.0118-3.6362-.0472c-.9357-.0473-1.57535-.1892-2.14388-.4137-.58039-.2246-1.07785-.5201-1.56348-1.0166-.48562-.4846-.79358-.9811-1.01863-1.5603-.2132-.5555-.36718-1.2057-.41455-2.1395-.04738-.9338-.04738-1.2411-.04738-3.6288 0-2.3877.01184-2.695.04738-3.6288.04737-.9338.18951-1.57215.41455-2.13952.22505-.5792.52116-1.07565 1.01863-1.56029.48563-.48463.98309-.79196 1.56348-1.01654.55669-.21277 1.20818-.36643 2.14388-.41372.9357-.04728 1.2436-.04728 3.6362-.04728s2.7006.01182 3.6363.04728c.9357.04729 1.5753.18913 2.1439.41372.5803.22458 1.0778.52009 1.5634 1.01654.4857.48464.7936.98109 1.0187 1.56029.2132.55555.3671 1.20572.4145 2.13952.0474.9338.0474 1.2411.0474 3.6288 0 2.3877 0 2.6832-.0474 3.6288Z" fill="#494949"/>
</svg>

<svg width="31" height="30" viewBox="0 0 31 30" fill="none" xmlns="http://www.w3.org/2000/svg">
<path d="M21.9005 9.81093C21.7347 9.39722 21.5452 9.10171 21.2372 8.79438C20.9293 8.48705 20.6332 8.29793 20.2186 8.13244C19.9106 8.01424 19.4369 7.87239 18.5841 7.82511C17.6483 7.77783 17.3759 7.77783 15.0189 7.77783C12.6618 7.77783 12.3894 7.78965 11.4537 7.82511C10.589 7.86057 10.1271 8.00242 9.81912 8.13244C9.40456 8.29793 9.10845 8.48705 8.80049 8.79438C8.49253 9.10171 8.30302 9.39722 8.1372 9.81093C8.01875 10.1183 7.87662 10.5911 7.82924 11.4421C7.78186 12.3759 7.78186 12.6478 7.78186 15.0001C7.78186 17.3523 7.79371 17.6242 7.82924 18.558C7.86477 19.4209 8.00691 19.8819 8.1372 20.1892C8.30302 20.6029 8.49253 20.8984 8.80049 21.2057C9.10845 21.5131 9.40456 21.7022 9.81912 21.8677C10.1271 21.9859 10.6009 22.1277 11.4537 22.175C12.3894 22.2223 12.6618 22.2223 15.0189 22.2223C17.3759 22.2223 17.6483 22.2105 18.5841 22.175C19.4487 22.1395 19.9106 21.9977 20.2186 21.8677C20.6332 21.7022 20.9293 21.5131 21.2372 21.2057C21.5452 20.8984 21.7347 20.6029 21.9005 20.1892C22.019 19.8819 22.1611 19.409 22.2085 18.558C22.2559 17.6242 22.2558 17.3523 22.2558 15.0001C22.2558 12.6478 22.244 12.3759 22.2085 11.4421C22.1729 10.5793 22.0308 10.1183 21.9005 9.81093ZM15.0307 19.5154C12.5315 19.5154 10.5061 17.4941 10.5061 15.0001C10.5061 12.506 12.5315 10.4847 15.0307 10.4847C17.5299 10.4847 19.5553 12.506 19.5553 15.0001C19.5553 17.4941 17.5299 19.5154 15.0307 19.5154ZM19.733 11.3594C19.1526 11.3594 18.6788 10.8866 18.6788 10.3074C18.6788 9.72819 19.1526 9.25537 19.733 9.25537C20.3134 9.25537 20.7871 9.72819 20.7871 10.3074C20.799 10.8866 20.3252 11.3594 19.733 11.3594Z" fill="#494949"/>
<path d="M16.0032 17.7645C17.534 17.2287 18.3397 15.5558 17.8027 14.0281C17.2657 12.5005 15.5894 11.6964 14.0586 12.2323C12.5278 12.7682 11.7222 14.4411 12.2592 15.9687C12.7961 17.4964 14.4724 18.3004 16.0032 17.7645Z" fill="#494949"/>
<path d="M27.1002 0H2.96113C1.32658 0 0 1.32388 0 2.95508V27.0449C0 28.6761 1.32658 30 2.96113 30H27.1002C28.7348 30 30.0614 28.6761 30.0614 27.0449V2.95508C30.0614 1.32388 28.7348 0 27.1002 0ZM23.7956 18.6288C23.7482 19.5626 23.6061 20.2009 23.3811 20.7683C23.156 21.3475 22.8599 21.844 22.3624 22.3286C21.8768 22.8132 21.3793 23.1206 20.799 23.3452C20.2423 23.5579 19.5908 23.7116 18.6551 23.7589C17.7194 23.8061 17.4114 23.8061 15.0188 23.8061C12.6262 23.8061 12.3183 23.7943 11.3826 23.7589C10.4469 23.7116 9.80725 23.5697 9.23872 23.3452C8.65833 23.1206 8.16087 22.8251 7.67524 22.3286C7.18962 21.844 6.88166 21.3475 6.65661 20.7683C6.44341 20.2128 6.28943 19.5626 6.24206 18.6288C6.19468 17.695 6.19468 17.3877 6.19468 15C6.19468 12.6123 6.20652 12.305 6.24206 11.3712C6.28943 10.4374 6.43157 9.79905 6.65661 9.23168C6.88166 8.65248 7.17777 8.15603 7.67524 7.67139C8.16087 7.18676 8.65833 6.87943 9.23872 6.65485C9.79541 6.44208 10.4469 6.28842 11.3826 6.24113C12.3183 6.19385 12.6262 6.19385 15.0188 6.19385C17.4114 6.19385 17.7194 6.20567 18.6551 6.24113C19.5908 6.28842 20.2304 6.43026 20.799 6.65485C21.3793 6.87943 21.8768 7.17494 22.3624 7.67139C22.8481 8.15603 23.156 8.65248 23.3811 9.23168C23.5943 9.78723 23.7482 10.4374 23.7956 11.3712C23.843 12.305 23.843 12.6123 23.843 15C23.843 17.3877 23.843 17.6832 23.7956 18.6288Z" fill="#494949"/>
</svg>
